X: 20491
M: C|
L: 1/16
K: Am
EG |\
c3cd3d e2g2 B2AB | G2g2 (ed)(cB) A4 A2 :|
|: AB |\
c2c2 cGEG c>de>f g2d>c | B2AG d2G2 B>cd>e d2cB |\
cBcd e>dea ged>c B2AB | G2g2 edcB A4 A2 :|
|: E2 |\
|: AB |\
c4 c2C2 cdef g2c2 | {c}B2AG G2d2 Bcdc B2A^G |\
|: EG |\
|: e2 |\
a4 a2ga b2a2 bagf | g4 g3a gaba bage |\
a4 a2ga b2g2a2e2 | g2d2 edcB A4 A2 :|
|: E2 |\
cdcB AGAF ABcd edec | dega gedB A4 A2 :|
|: a2 |\
aeab aeab Acea baec | gdgb gdgb GBdg bgdB |\
eceg dBdf cAca fBdf | ecdB cAB^G A4 A,2 :|


